packages/icons/raw/imported/SportSnooker.svg

<svg width="32" height="32" viewBox="0 0 32 32" fill="none" xmlns="http://www.w3.org/2000/svg">
<path d="M12.4999 21.312C12.4999 22.2995 11.7165 23.1 10.75 23.1C9.78349 23.1 9 22.2995 9 21.312C9 20.3245 9.78349 19.5239 10.75 19.5239C11.7165 19.5239 12.4999 20.3245 12.4999 21.312ZM12.4999 21.312C12.4999 22.2995 13.2837 23.1 14.2501 23.1C15.2166 23.1 16.0001 22.2995 16.0001 21.312M12.4999 21.312C12.4999 20.3245 13.2837 19.5239 14.2501 19.5239C15.2166 19.5239 16.0001 20.3245 16.0001 21.312M14.25 18.1566C14.25 19.1441 13.4665 19.9447 12.5001 19.9447C11.5336 19.9447 10.7501 19.1441 10.7501 18.1566C10.7501 17.1691 11.5336 16.3686 12.5001 16.3686C13.4665 16.3686 14.25 17.1691 14.25 18.1566ZM14.25 18.1566C14.25 19.1441 15.0335 19.9447 16 19.9447C16.9665 19.9447 17.75 19.1441 17.75 18.1566M14.25 18.1566C14.25 17.1691 15.0335 16.3686 16 16.3686C16.9665 16.3686 17.75 17.1691 17.75 18.1566M17.75 18.1566C17.75 19.1441 18.5335 19.9447 19.4999 19.9447C20.4664 19.9447 21.2499 19.1441 21.2499 18.1566C21.2499 17.1691 20.4664 16.3686 19.4999 16.3686C18.5335 16.3686 17.75 17.1691 17.75 18.1566ZM16.0001 15.0223C16.0001 16.0098 15.2166 16.8103 14.2501 16.8103C13.2837 16.8103 12.5002 16.0098 12.5002 15.0223C12.5002 14.0348 13.2837 13.2343 14.2501 13.2343C15.2166 13.2343 16.0001 14.0348 16.0001 15.0223ZM16.0001 15.0223C16.0001 16.0098 16.7836 16.8103 17.7501 16.8103C18.7166 16.8103 19.5001 16.0098 19.5001 15.0223C19.5001 14.0348 18.7166 13.2343 17.7501 13.2343C16.7836 13.2343 16.0001 14.0348 16.0001 15.0223ZM16.0001 21.312C16.0001 22.2995 16.7836 23.1 17.7501 23.1C18.7166 23.1 19.5001 22.2995 19.5001 21.312M16.0001 21.312C16.0001 20.3245 16.7836 19.5239 17.7501 19.5239C18.7166 19.5239 19.5001 20.3245 19.5001 21.312M19.5001 21.312C19.5001 22.2995 20.2835 23.1 21.25 23.1C22.2165 23.1 23 22.2995 23 21.312C23 20.3245 22.2165 19.5239 21.25 19.5239C20.2835 19.5239 19.5001 20.3245 19.5001 21.312ZM17.75 11.888C17.75 12.8755 16.9665 13.6761 16 13.6761C15.0335 13.6761 14.25 12.8755 14.25 11.888C14.25 10.9005 15.0335 10.1 16 10.1C16.9665 10.1 17.75 10.9005 17.75 11.888ZM8.49905 25H23.4918C24.3913 25 25.2159 24.5276 25.6657 23.732C26.1155 22.9365 26.1155 22.0166 25.6407 21.2459L17.9195 8.09392C17.5197 7.39779 16.795 7 15.9954 7C15.1958 7 14.4712 7.39779 14.0713 8.09392L6.35009 21.2459C5.90031 22.0166 5.87532 22.9613 6.3251 23.7569C6.77488 24.5276 7.59949 25 8.49905 25Z" stroke="black" stroke-miterlimit="10"/>
</svg>

<svg width="32" height="32" fill="none" xmlns="http://www.w3.org/2000/svg"><path d="M12.5 21.312c0 .987-.784 1.788-1.75 1.788-.967 0-1.75-.8-1.75-1.788s.783-1.788 1.75-1.788c.966 0 1.75.8 1.75 1.788Zm0 0c0 .987.784 1.788 1.75 1.788.967 0 1.75-.8 1.75-1.788m-3.5 0c0-.988.784-1.788 1.75-1.788.967 0 1.75.8 1.75 1.788m-1.75-3.155c0 .987-.784 1.788-1.75 1.788s-1.75-.8-1.75-1.788.784-1.788 1.75-1.788 1.75.8 1.75 1.788Zm0 0c0 .987.784 1.788 1.75 1.788s1.75-.8 1.75-1.788m-3.5 0c0-.988.784-1.788 1.75-1.788s1.75.8 1.75 1.788m0 0c0 .987.784 1.788 1.75 1.788s1.75-.8 1.75-1.788-.784-1.788-1.75-1.788-1.75.8-1.75 1.788ZM16 15.022c0 .988-.783 1.788-1.75 1.788-.966 0-1.75-.8-1.75-1.788 0-.987.784-1.788 1.75-1.788.967 0 1.75.8 1.75 1.788Zm0 0c0 .988.784 1.788 1.75 1.788.967 0 1.75-.8 1.75-1.788 0-.987-.783-1.788-1.75-1.788-.966 0-1.75.8-1.75 1.788Zm0 6.29c0 .987.784 1.788 1.75 1.788.967 0 1.75-.8 1.75-1.788m-3.5 0c0-.988.784-1.788 1.75-1.788.967 0 1.75.8 1.75 1.788m0 0c0 .987.784 1.788 1.75 1.788S23 22.3 23 21.312s-.784-1.788-1.75-1.788-1.75.8-1.75 1.788Zm-1.75-9.424c0 .988-.784 1.788-1.75 1.788s-1.75-.8-1.75-1.788S15.034 10.1 16 10.1s1.75.8 1.75 1.788ZM8.5 25h14.992c.9 0 1.724-.472 2.174-1.268.45-.796.45-1.715-.025-2.486L17.92 8.094C17.52 7.398 16.794 7 15.994 7s-1.524.398-1.924 1.094l-7.72 13.152a2.505 2.505 0 0 0-.026 2.51A2.51 2.51 0 0 0 8.5 25Z" stroke="#000" stroke-miterlimit="10"/></svg>
